X: 1135
T: Abe's Retreat
C:Clyde Curley version
B: steve's tunes
M:4/4
L:1/8
R: reel
Q: 1/4=120
K:A
V:1 
|:"A"AdB=G A2 cd | ef=gf (e2 e)e | e2 A2 "G"BBBA |
"E"=G^GED E2 E=G | "A"AdB=G A2 cd | ef=gf e2 ae |
beae "E"=gged |[1 "A"c(A A)A A4 :|[2"A"c(A A)A A2 =g2 ||
|: "A"a2ab a=gef | "G"=gefd "A"e2 g{g}(a | a)aa2 bbba | "E"=g(e e)e e2 e2 |
   "A"aaab a=gef | "G"=gefd "A"e2 a{a}(b | b)eae "E"=gged | "A"c(A A)A A4:|
% abcbook-tune_id 6298c245c2ae227bc304285a


% abcbook-boost 16
% abcbook-tablature 
% abcbook-transpose 
% abcbook-lastupdated 1662164040026
% abcbook-soundfonts 
% abcbook-repeats 3


